dist/img/polygonal/polygonal5.svg

<?xml version="1.0" encoding="UTF-8" standalone="yes"?>
<svg xmlns="http://www.w3.org/2000/svg" viewBox="0 0 50 50">
  <path d="M42.482 17.517H37.66l2.41 4.176zm-12.056 0h-4.822l2.41 4.176zm-11.454.348l-2.41 4.177h4.82zm6.028 0l-2.41 4.177h4.82zm14.468 4.873h-4.822l2.412 4.176zm-6.028 0h-4.823l2.412 4.176zm-6.03 0h-4.82L25 26.914zm-6.027 0H16.56l2.412 4.176zm-6.03 0h-4.82l2.41 4.176zm.605.348l-2.412 4.176h4.822zm6.028 0l-2.412 4.176h4.822zm6.03 0l-2.41 4.176h4.82zm6.027 0l-2.41 4.176h4.82zm2.41-16.01h-4.82l2.41 4.176zm.605.347L34.646 11.6h4.822zm2.41 4.873h-4.822l2.412 4.177zm-12.058 0h-4.82L25 16.473zm-12.056 0h-4.822l2.41 4.177zm-5.424.35L7.518 16.82h4.822zm6.028 0l-2.412 4.174h4.822zm12.057 0l-2.41 4.174h4.82zm12.055 0l-2.41 4.174h4.822zm-3.616 15.312h-4.822l2.41 4.177zm-6.028 0h-4.822l2.41 4.177zm-6.03 0h-4.822l2.412 4.177zm-6.028 0h-4.822l2.412 4.177zm-5.425.35l-2.41 4.175h4.82zm6.03 0l-2.41 4.175h4.82zm6.027 0l-2.41 4.175h4.82zm6.03 0l-2.413 4.175h4.822zm-3.62 4.872h-4.82L25 37.355zm-6.027 0H16.56l2.412 4.175zm6.632.347l-2.41 4.177h4.82zm2.41 4.873h-4.82l2.41 4.177zm-12.057 0h-4.822l2.412 4.177zm-6.028 0H7.518l2.412 4.177zm.603.348l-2.41 4.177h4.82zm12.057 0l-2.41 4.177h4.82z"/>
</svg>

<?xml version="1.0" encoding="UTF-8" standalone="yes"?>
<svg xmlns="http://www.w3.org/2000/svg" viewBox="0 0 50 50">
  <path d="M42.482 17.517H37.66l2.41 4.176zM30.426 17.517h-4.822l2.41 4.176zM18.972 17.865l-2.41 4.177h4.82zM25 17.865l-2.41 4.177h4.82zM39.468 22.738h-4.822l2.412 4.176zM33.44 22.738h-4.823l2.412 4.176zM27.41 22.738h-4.82L25 26.914zM21.383 22.738H16.56l2.412 4.176zM15.354 22.738h-4.822l2.41 4.176zM15.958 23.086l-2.412 4.176h4.822zM21.986 23.086l-2.412 4.176h4.822zM28.015 23.086l-2.41 4.176h4.82zM34.043 23.086l-2.41 4.176h4.82zM36.454 7.075h-4.822l2.41 4.177zM37.058 7.423L34.646 11.6h4.822zM39.468 12.296h-4.822l2.412 4.177zM27.41 12.296h-4.82L25 16.473zM15.354 12.296h-4.822l2.41 4.177zM9.93 12.645L7.518 16.82h4.822zM15.958 12.645l-2.412 4.175h4.822zM28.015 12.645l-2.41 4.175h4.82zM40.07 12.645l-2.41 4.175h4.822zM36.454 27.958h-4.822l2.41 4.177zM30.426 27.958h-4.822l2.41 4.177zM24.396 27.958h-4.822l2.412 4.177zM18.368 27.958h-4.822l2.412 4.177zM12.943 28.307l-2.41 4.176h4.82zM18.972 28.307l-2.41 4.176h4.82zM25 28.307l-2.41 4.176h4.82zM31.03 28.307l-2.413 4.176h4.822zM27.41 33.18h-4.82L25 37.355zM21.383 33.18H16.56l2.412 4.175zM28.015 33.527l-2.41 4.177h4.82zM30.426 38.4h-4.822l2.41 4.177zM18.368 38.4h-4.822l2.412 4.177zM12.34 38.4H7.518l2.412 4.177zM12.943 38.748l-2.41 4.177h4.82zM25 38.748l-2.41 4.177h4.82z"/>
</svg>
